X: 20827
T: Johnny's Gone To France
R: polka
M: 2/4
K: Edorian
|:G/A/|BE Ed|B2 AG|FD AD|F/E/D AD|
BE Ed|B2 AG|F/E/D AF|E2 E:|
|:G/A/|Bd ef|g2 fe|Bd Ad|B/c/d Ad|
Bd ef|g2 fe|B/c/d AF|E2 E:|

